X:1
T:Title
%%score { 1 | 2 }
L:1/8
M:4/4
K:Bb
V:1 treble nm="Grand Piano"
V:2 bass 
V:1
 z4 z2 z[Q:1/4=100] F | BBBB BFDF | Bcdc B4 | GGGG [DF][DG][FA][FB] | [=Ec][EG][Ec][Ed] c3 F | %5
 BBBB BFDF | Bcdc B4 | GGGG [DF][DG][FA][FB] |[M:7/8] [Fd]2 [Ec]2 [DB]3 |[M:1/4] [B,D][CE] | %10
[M:4/4] [DF]2 [DF]4 [B,D][DF] | G2 G4 BG | [DF]2 [DB]2 [=Ec]2 [Ed]2 |[M:3/4] [Ec]6 | %14
[M:1/4] [B,D][CE] |[M:4/4] [DF]2 [DF]4 [B,D][DF] | G2 G4 BG | [DF]2 [DB]2 [=Ec]2 [_Ed]2 | %18
[M:7/8] [DB]-[DB]-[DB]- [DB]3 z |] %19
V:2
 z4 z2 z F, | B,B,B,B, B,F,D,F, | B,CDC B,4 | %3
 [E,B,E][E,B,E][E,B,E][E,B,E] [B,,B,][B,,B,][D,B,][D,B,] | [C,B,][C,B,][C,G,][C,B,] [F,A,E]3 F, | %5
 B,B,B,B, B,F,D,F, | B,CDC B,4 | [E,B,E][E,B,E][E,B,E][E,B,E] [B,,B,][B,,B,][D,B,][D,B,] | %8
[M:7/8] [F,B,]2 [F,A,]2 [B,,B,]3 |[M:1/4] [B,,F,][B,,F,] | %10
[M:4/4] [B,,B,]2 [B,,B,]4 [B,,F,][B,,B,] | [E,B,E]2 [E,B,E]4 [E,G,E][E,B,E] | %12
 [B,,B,]2 [G,B,]2 [C,B,]2 [C,B,]2 |[M:3/4] [F,A,]6 |[M:1/4] [B,,F,][B,,F,] | %15
[M:4/4] [B,,B,]2 [B,,B,]4 [B,,F,][B,,B,] | [E,B,E]2 [E,B,E]4 [E,G,E][E,B,E] | %17
 [B,,B,]2 [G,B,]2 [C,B,]2 [F,A,]2 |[M:7/8] [B,,B,]-[B,,B,]-[B,,B,]- [B,,B,]3 z |] %19

